X:1
T: Adam's Hornpipe
N:
C:
S:
A:
O:
R:
M:4/4
K:D
I:speed 232
%W:
% voice 1 (1 lines, 60 notes)
K:D
M:4/4
L:1/16
A2 c2 d2 f2 e2 c2 B2 A2 |B2 c2 d2 B2 B2 F2 E2 D2 |G2 A2 B2 G2 F2 G2 A2 F2 |B2 A2 G2 F2 F4 E4 |A2 c2 d2 f2 e2 c2 B2 A2 |B2 c2 d2 B2 B2 A2 G2 F2 |G2 A2 B2 G2 A2 f2 e2 d2 |e2 c2 A2 c2 d4 D4 |
%W:
% voice 1 (1 lines, 60 notes)
A2 c2 d2 f2 e2 c2 B2 A2 |B2 c2 d2 B2 B2 F2 E2 D2 |G2 A2 B2 G2 F2 G2 A2 F2 |B2 A2 G2 F2 F4 E4 |A2 c2 d2 f2 e2 c2 B2 A2 |B2 c2 d2 B2 B2 A2 G2 F2 |G2 A2 B2 G2 A2 f2 e2 d2 |e2 c2 A2 c2 d4 D4 |
%W:
% voice 1 (1 lines, 60 notes)
f2 d2 A2 F2 A2 d2 f2 d2 |e2 c2 A2 F2 D2 F2 A2 d2 |B2 c2 d2 B2 A2 c2 d2 A2 |A2 G2 F2 E2 F4 E4 |f2 d2 A2 F2 A2 d2 f2 d2 |e2 c2 A2 F2 D2 F2 A2 d2 |B2 g2 A2 f2 G2 e2 F2 d2 |A2 G2 F2 E2 F4 D4 |
%W:
% voice 1 (1 lines, 60 notes)
f2 d2 A2 F2 A2 d2 f2 d2 |e2 c2 A2 F2 D2 F2 A2 d2 |B2 c2 d2 B2 A2 c2 d2 A2 |A2 G2 F2 E2 F4 E4 |f2 d2 A2 F2 A2 d2 f2 d2 |e2 c2 A2 F2 D2 F2 A2 d2 |B2 g2 A2 f2 G2 e2 F2 d2 |A2 G2 F2 E2 F4 D4 ||
